build/img/icon-doc.svg

<svg width="24" height="24" viewBox="0 0 24 24" fill="none" xmlns="http://www.w3.org/2000/svg">
<path d="M3 1H17V4V5H18H21V23H3V1ZM19 2.41421L19.5858 3H19V2.41421Z" fill="white" stroke="#9BD2F4" stroke-width="2"/>
<mask id="path-2-inside-1" fill="white">
<rect y="8" width="24" height="12" rx="1"/>
</mask>
<rect y="8" width="24" height="12" rx="1" fill="white" stroke="#9BD2F4" stroke-width="4" mask="url(#path-2-inside-1)"/>
<path d="M4.48788 17C4.43454 17 4.38921 16.9813 4.35188 16.944C4.31454 16.9067 4.29588 16.8613 4.29588 16.808V11.6C4.29588 11.5413 4.31188 11.4933 4.34388 11.456C4.38121 11.4187 4.42921 11.4 4.48788 11.4H6.43988C8.00788 11.4 8.80788 12.1253 8.83988 13.576C8.85054 13.8853 8.85588 14.0933 8.85588 14.2C8.85588 14.3013 8.85054 14.5067 8.83988 14.816C8.81854 15.5627 8.61854 16.1147 8.23988 16.472C7.86121 16.824 7.27454 17 6.47988 17H4.48788ZM6.43988 16.08C6.88788 16.08 7.21054 15.9813 7.40788 15.784C7.60521 15.5813 7.70921 15.2507 7.71988 14.792C7.73054 14.472 7.73588 14.272 7.73588 14.192C7.73588 14.1067 7.73054 13.9093 7.71988 13.6C7.70921 13.1627 7.59721 12.84 7.38388 12.632C7.17588 12.424 6.84788 12.32 6.39988 12.32H5.40788V16.08H6.43988ZM12.0729 17.08C11.3475 17.08 10.7822 16.896 10.3769 16.528C9.97154 16.16 9.75821 15.6133 9.73688 14.888C9.73154 14.7333 9.72888 14.5067 9.72888 14.208C9.72888 13.904 9.73154 13.6747 9.73688 13.52C9.75821 12.8107 9.97688 12.2667 10.3929 11.888C10.8089 11.5093 11.3689 11.32 12.0729 11.32C12.7769 11.32 13.3369 11.5093 13.7529 11.888C14.1742 12.2667 14.3955 12.8107 14.4169 13.52C14.4275 13.8293 14.4329 14.0587 14.4329 14.208C14.4329 14.352 14.4275 14.5787 14.4169 14.888C14.3902 15.6133 14.1742 16.16 13.7689 16.528C13.3635 16.896 12.7982 17.08 12.0729 17.08ZM12.0729 16.16C12.4302 16.16 12.7155 16.0533 12.9289 15.84C13.1422 15.6213 13.2569 15.2907 13.2729 14.848C13.2835 14.528 13.2889 14.312 13.2889 14.2C13.2889 14.0773 13.2835 13.8613 13.2729 13.552C13.2569 13.1093 13.1422 12.7813 12.9289 12.568C12.7155 12.3493 12.4302 12.24 12.0729 12.24C11.7209 12.24 11.4382 12.3493 11.2249 12.568C11.0115 12.7813 10.8969 13.1093 10.8809 13.552C10.8755 13.7067 10.8729 13.9227 10.8729 14.2C10.8729 14.472 10.8755 14.688 10.8809 14.848C10.8969 15.2907 11.0089 15.6213 11.2169 15.84C11.4302 16.0533 11.7155 16.16 12.0729 16.16ZM17.6434 17.08C16.9074 17.08 16.3367 16.8907 15.9314 16.512C15.5314 16.1333 15.318 15.6 15.2914 14.912C15.286 14.768 15.2834 14.5333 15.2834 14.208C15.2834 13.8773 15.286 13.6373 15.2914 13.488C15.318 12.8053 15.534 12.2747 15.9394 11.896C16.35 11.512 16.918 11.32 17.6434 11.32C18.118 11.32 18.5314 11.4027 18.8834 11.568C19.2354 11.728 19.5074 11.9493 19.6994 12.232C19.8914 12.5093 19.9927 12.824 20.0034 13.176V13.192C20.0034 13.2347 19.9847 13.272 19.9474 13.304C19.9154 13.3307 19.878 13.344 19.8354 13.344H19.0754C19.0114 13.344 18.9634 13.3307 18.9314 13.304C18.8994 13.2773 18.8727 13.2267 18.8514 13.152C18.766 12.816 18.6247 12.5813 18.4274 12.448C18.23 12.3093 17.966 12.24 17.6354 12.24C16.8674 12.24 16.4674 12.6693 16.4354 13.528C16.43 13.672 16.4274 13.8933 16.4274 14.192C16.4274 14.4907 16.43 14.7173 16.4354 14.872C16.4674 15.7307 16.8674 16.16 17.6354 16.16C17.966 16.16 18.23 16.0907 18.4274 15.952C18.63 15.8133 18.7714 15.5787 18.8514 15.248C18.8674 15.1733 18.8914 15.1227 18.9234 15.096C18.9607 15.0693 19.0114 15.056 19.0754 15.056H19.8354C19.8834 15.056 19.9234 15.072 19.9554 15.104C19.9927 15.136 20.0087 15.176 20.0034 15.224C19.9927 15.576 19.8914 15.8933 19.6994 16.176C19.5074 16.4533 19.2354 16.6747 18.8834 16.84C18.5314 17 18.118 17.08 17.6434 17.08Z" fill="#2C8ECC"/>
</svg>

<svg width="24" height="24" fill="none" xmlns="http://www.w3.org/2000/svg"><path d="M3 1h14v4h4v18H3V1zm16 1.414l.586.586H19v-.586z" fill="#fff" stroke="#9BD2F4" stroke-width="2"/><mask id="a" fill="#fff"><rect y="8" width="24" height="12" rx="1"/></mask><rect y="8" width="24" height="12" rx="1" fill="#fff" stroke="#9BD2F4" stroke-width="4" mask="url(#a)"/><path d="M4.488 17a.185.185 0 01-.136-.056.185.185 0 01-.056-.136V11.6c0-.059.016-.107.048-.144a.195.195 0 01.144-.056H6.44c1.568 0 2.368.725 2.4 2.176.01.31.016.517.016.624 0 .101-.005.307-.016.616-.021.747-.221 1.299-.6 1.656-.379.352-.965.528-1.76.528H4.488zm1.952-.92c.448 0 .77-.099.968-.296.197-.203.301-.533.312-.992.01-.32.016-.52.016-.6 0-.085-.005-.283-.016-.592-.01-.437-.123-.76-.336-.968-.208-.208-.536-.312-.984-.312h-.992v3.76H6.44zm5.633 1c-.726 0-1.29-.184-1.696-.552-.405-.368-.619-.915-.64-1.64a21.366 21.366 0 01-.008-.68c0-.304.003-.533.008-.688.021-.71.24-1.253.656-1.632.416-.379.976-.568 1.68-.568s1.264.19 1.68.568c.421.379.643.923.664 1.632.01.31.016.539.016.688 0 .144-.005.37-.016.68-.027.725-.243 1.272-.648 1.64-.405.368-.97.552-1.696.552zm0-.92c.357 0 .643-.107.856-.32.213-.219.328-.55.344-.992.01-.32.016-.536.016-.648 0-.123-.005-.339-.016-.648-.016-.443-.13-.77-.344-.984-.213-.219-.499-.328-.856-.328-.352 0-.635.11-.848.328-.213.213-.328.541-.344.984-.005.155-.008.37-.008.648 0 .272.003.488.008.648.016.443.128.773.336.992.213.213.498.32.856.32zm5.57.92c-.736 0-1.306-.19-1.712-.568-.4-.379-.613-.912-.64-1.6a21.325 21.325 0 01-.008-.704c0-.33.003-.57.008-.72.027-.683.243-1.213.648-1.592.411-.384.979-.576 1.704-.576.475 0 .888.083 1.24.248.352.16.624.381.816.664.192.277.294.592.304.944v.016c0 .043-.018.08-.056.112a.17.17 0 01-.112.04h-.76c-.064 0-.112-.013-.144-.04-.032-.027-.058-.077-.08-.152-.085-.336-.226-.57-.424-.704-.197-.139-.461-.208-.792-.208-.768 0-1.168.43-1.2 1.288a20.75 20.75 0 00-.008.664c0 .299.003.525.008.68.032.859.432 1.288 1.2 1.288.331 0 .595-.07.792-.208.203-.139.344-.373.424-.704.016-.075.04-.125.072-.152a.257.257 0 01.152-.04h.76c.048 0 .088.016.12.048a.13.13 0 01.048.12c-.01.352-.112.67-.304.952a1.996 1.996 0 01-.816.664c-.352.16-.765.24-1.24.24z" fill="#2C8ECC"/></svg>
